X:653
T:Vals # 653
S:efter Anders Gustaf Andersson
B:Sörmlands musikarkiv - Olof Anderssons uppteckningar 1936, nr 653
O:Mörkö, Södermanland
R:Vals
M:3/4
L:1/8
Q:160
K:G
D2 GF GA | B2G2D2 | GB dG Bd | g4d2 | ed cB AG | GF FF F2 | DE FG AB |
c2 (3BcB A2 | GF GA BG | D4D2:| DF AB c2 | BA GA B2| AF AB c2 |
Bd GB d2| d2Bd ge| ed dB G2| FG AD EF| G4z2 :| d2Bd BG |
D2 GB d2 | dB cA FA | DF AB c2 | Bd BG D2 | DG Bc dB | cd ec AF | G4 z2:|

